linksys.svg

<svg viewBox="0 0 24 24" version="1.1" xmlns="http://www.w3.org/2000/svg" xmlns:xlink="http://www.w3.org/1999/xlink">
    <title>Linksys</title>
        <path d="M4.13694699,0.488905056 L4.13694699,20.5305202 L21.4019928,20.5305202 L21.4019928,24 L0,24 L0,0.488905056 L4.13694699,0.488905056 Z M11.3200478,0.488905056 L11.3200478,14.1747545 L21.4019928,14.1747545 L21.4019928,17.6442343 L7.18660821,17.6442343 L7.18660821,0.488905056 L11.3200478,0.488905056 Z M18.9047429,0 C20.6145875,0 22,1.37941069 22,3.08184794 C22,4.78428519 20.6145875,6.16369589 18.9047429,6.16369589 C17.1948984,6.1619498 15.8094859,4.78428519 15.8094859,3.08184794 C15.8094859,1.37941069 17.1948984,0 18.9047429,0 Z" fill="#006FF2" fill-rule="nonzero"></path>
</svg>

<svg viewBox="0 0 24 24" xmlns="http://www.w3.org/2000/svg"><path d="M4.137.489V20.53h17.265V24H0V.489h4.137Zm7.183 0v13.686h10.082v3.47H7.187V.488h4.133ZM18.905 0C20.615 0 22 1.38 22 3.082a3.088 3.088 0 0 1-3.095 3.082 3.09 3.09 0 0 1-3.096-3.082A3.088 3.088 0 0 1 18.905 0Z" fill="#006FF2"/></svg>
